X: 2
M:6/8
L:1/8
K:Edor
u(d/c/)|\
|:ud|\
ke3  efg | fed ecA | Add {e}dcd | ABc dAF |
E2e efg | fed ecA | {e}dcd AGF | {c}BAF E2 :|


